m/partners/pnr07.svg

<svg width="97" height="28" viewBox="0 0 97 28" fill="none" xmlns="http://www.w3.org/2000/svg">
<path d="M9.103 15.4576C8.40352 14.7555 8.40352 13.6127 9.103 12.9106C9.80248 12.2084 10.9409 12.2084 11.6403 12.9106C12.1067 13.3787 12.285 14.0671 12.0929 14.7004C12.0792 14.7417 12.0929 14.783 12.1204 14.8105L12.9982 15.6917C13.0393 15.733 13.1079 15.733 13.149 15.6917C13.1627 15.6779 13.1627 15.6779 13.1765 15.6641C13.9994 14.1084 13.4096 12.1809 11.8598 11.3548C10.31 10.5287 8.38981 11.1208 7.56689 12.6765C6.74397 14.2323 7.33373 16.1598 8.88356 16.9859C9.8162 17.4815 10.9271 17.4815 11.8598 16.9859C11.9146 16.9583 11.9284 16.8895 11.9009 16.8344C11.9009 16.8206 11.8872 16.8206 11.8735 16.8069L10.982 15.9257C10.9546 15.8982 10.9134 15.8844 10.8723 15.8982C10.2551 16.1047 9.56932 15.9257 9.103 15.4576Z" fill="#2B354E"/>
<path d="M9.11659 19.7254C9.81607 19.0233 10.9544 19.0233 11.6539 19.7254C12.3534 20.4276 12.3534 21.5703 11.6539 22.2725C11.1876 22.7406 10.5018 22.9196 9.87094 22.7268C9.82979 22.713 9.78864 22.7268 9.76121 22.7543L8.88343 23.6355C8.84229 23.6768 8.84229 23.7456 8.88343 23.8007C8.89715 23.8145 8.89715 23.8145 8.91086 23.8145C10.4607 24.6405 12.3808 24.0485 13.2038 22.4928C14.0267 20.937 13.4369 19.0095 11.8871 18.1834C10.3373 17.3574 8.41711 17.9494 7.59419 19.5051C7.10044 20.4413 7.10044 21.5565 7.59419 22.4928C7.62162 22.5478 7.6902 22.5616 7.74506 22.5341C7.75877 22.5341 7.75878 22.5203 7.77249 22.5065L8.65027 21.6254C8.6777 21.5978 8.69142 21.5565 8.6777 21.5152C8.47197 20.8819 8.65027 20.1935 9.11659 19.7254Z" fill="#2B354E"/>
<path d="M17.2086 22.7959C16.2211 22.7959 15.4119 21.9974 15.4119 21.0061C15.4119 20.0148 16.2074 19.2025 17.1949 19.2025C17.8532 19.2025 18.4704 19.5605 18.7721 20.1525C18.7858 20.1938 18.827 20.2076 18.8681 20.2076H20.1162C20.1848 20.2076 20.2259 20.1525 20.2259 20.0974C20.2259 20.0837 20.2259 20.0699 20.2259 20.0699C19.7185 18.3902 17.9355 17.4402 16.2622 17.9634C14.589 18.4866 13.6426 20.2626 14.1638 21.9423C14.6712 23.622 16.4542 24.572 18.1275 24.0488C19.1287 23.7321 19.9242 22.9474 20.2259 21.9423C20.2397 21.8872 20.2122 21.8184 20.1437 21.8046C20.1299 21.8046 20.1299 21.8046 20.1162 21.8046H18.8681C18.827 21.8046 18.7858 21.8322 18.7721 21.8597C18.4704 22.438 17.8669 22.7959 17.2086 22.7959Z" fill="#2B354E"/>
<path d="M15.4119 14.191C15.4119 13.1997 16.2074 12.3874 17.1949 12.3874C18.1824 12.3874 18.9916 13.186 18.9916 14.1772C18.9916 14.8381 18.635 15.4439 18.0452 15.7605C18.0041 15.7743 17.9903 15.8156 17.9903 15.8569V17.1098C17.9903 17.1649 18.0452 17.2199 18.1001 17.2199C18.1138 17.2199 18.1275 17.2199 18.1275 17.2199C19.8008 16.7105 20.7471 14.9207 20.2259 13.241C19.7185 11.5613 17.9355 10.6114 16.2622 11.1345C14.589 11.6577 13.6426 13.4338 14.1638 15.1135C14.4792 16.1185 15.261 16.917 16.2622 17.2199C16.3171 17.2337 16.3857 17.2062 16.3994 17.1373C16.3994 17.1236 16.3994 17.1098 16.3994 17.1098V15.8569C16.3994 15.8156 16.3719 15.7743 16.3445 15.7605C15.7822 15.4576 15.4119 14.8519 15.4119 14.191Z" fill="#2B354E"/>
<path d="M12.1615 7.37583C12.1615 8.36712 11.366 9.17942 10.3648 9.17942C9.37728 9.17942 8.56808 8.38088 8.56808 7.37583C8.56808 6.71498 8.92468 6.1092 9.51444 5.79254C9.55558 5.77877 9.5693 5.73747 9.5693 5.69616V4.4433C9.5693 4.38823 9.52815 4.33315 9.45958 4.33315C9.44586 4.33315 9.43215 4.33315 9.43215 4.33315C7.75888 4.84256 6.81252 6.63237 7.3337 8.31204C7.84117 9.99172 9.62416 10.9417 11.2974 10.4185C12.9707 9.89534 13.9171 8.1193 13.3959 6.43963C13.0804 5.43458 12.2986 4.63605 11.2974 4.33315C11.2426 4.31939 11.174 4.34692 11.1603 4.41576C11.1603 4.42953 11.1603 4.42953 11.1603 4.4433V5.69616C11.1603 5.73747 11.1877 5.77877 11.2151 5.79254C11.8049 6.1092 12.1615 6.71498 12.1615 7.37583Z" fill="#2B354E"/>
<path d="M25.301 19.7259C26.0005 20.428 26.0005 21.5708 25.301 22.2729C24.6015 22.9751 23.4631 22.9751 22.7637 22.2729C22.2973 21.8048 22.119 21.1164 22.311 20.4831C22.3248 20.4418 22.311 20.4005 22.2836 20.373L21.4058 19.478C21.3647 19.4367 21.2961 19.4367 21.2412 19.478C21.2275 19.4918 21.2275 19.4918 21.2275 19.5056C20.4046 21.0614 20.9944 22.9889 22.5442 23.8149C24.094 24.641 26.0142 24.049 26.8371 22.4932C27.66 20.9374 27.0703 19.0099 25.5204 18.1839C24.5878 17.6882 23.4768 17.6882 22.5442 18.1839C22.4893 18.2114 22.4756 18.2802 22.5031 18.3353C22.5031 18.3491 22.5168 18.3491 22.5305 18.3629L23.4083 19.244C23.4357 19.2715 23.4768 19.2853 23.518 19.2715C24.1489 19.0925 24.8347 19.2578 25.301 19.7259Z" fill="#2B354E"/>
<path d="M25.3013 15.4578C24.6018 16.16 23.4634 16.16 22.7639 15.4578C22.0645 14.7556 22.0645 13.6129 22.7639 12.9107C23.2303 12.4426 23.916 12.2636 24.5469 12.4564C24.5881 12.4702 24.6292 12.4564 24.6566 12.4289L25.5344 11.5477C25.5756 11.5064 25.5756 11.4238 25.5344 11.3825C25.5344 11.3825 25.5207 11.3687 25.507 11.3687C23.9572 10.5427 22.037 11.1347 21.2141 12.6905C20.3912 14.2462 20.9809 16.1737 22.5308 16.9998C24.0806 17.8259 26.0007 17.2339 26.8237 15.6781C27.3174 14.7419 27.3174 13.6267 26.8237 12.6905C26.7962 12.6354 26.7277 12.6078 26.6728 12.6492C26.6591 12.6492 26.6591 12.6629 26.6454 12.6629L25.7676 13.5441C25.7402 13.5716 25.7264 13.6129 25.7402 13.6542C25.9322 14.3013 25.7676 14.9897 25.3013 15.4578Z" fill="#2B354E"/>
<path d="M24.066 9.1796C23.0785 9.1796 22.2693 8.38107 22.2693 7.38978C22.2693 6.39849 23.0648 5.58618 24.0523 5.58618C24.7106 5.58618 25.3141 5.94415 25.6296 6.53617C25.6433 6.57747 25.6844 6.59124 25.7256 6.59124H26.9737C27.0422 6.59124 27.0834 6.53617 27.0834 6.48109C27.0834 6.46733 27.0834 6.46733 27.0834 6.45356C26.5759 4.77387 24.7929 3.82389 23.1196 4.34707C21.4464 4.85648 20.5 6.64631 21.0212 8.32599C21.5287 10.0057 23.3117 10.9557 24.9849 10.4325C25.9862 10.1158 26.7816 9.33105 27.0834 8.32599C27.0971 8.27092 27.0697 8.20208 27.0011 8.18832C26.9874 8.18832 26.9874 8.18832 26.9737 8.18832H25.7393C25.6981 8.18832 25.657 8.21585 25.6433 8.24339C25.3278 8.80787 24.7243 9.16584 24.066 9.1796Z" fill="#2B354E"/>
<path d="M15.9472 6.10934C16.6466 5.40718 17.785 5.40718 18.4845 6.10934C19.184 6.8115 19.184 7.95424 18.4845 8.6564C18.0182 9.12451 17.3324 9.30349 16.7015 9.11074C16.6604 9.09698 16.6192 9.11074 16.5918 9.13828L15.714 10.0194C15.6728 10.0607 15.6728 10.1296 15.714 10.1709C15.7277 10.1846 15.7277 10.1846 15.7414 10.1984C17.2913 11.0245 19.2114 10.4325 20.0343 8.87669C20.8572 7.32092 20.2675 5.39341 18.7176 4.56734C17.1678 3.74126 15.2477 4.33328 14.4248 5.88906C13.931 6.82527 13.931 7.94047 14.4248 8.87669C14.4522 8.93176 14.5208 8.94553 14.5756 8.91799C14.5893 8.91799 14.5893 8.90422 14.6031 8.90422L15.4808 8.02308C15.5083 7.99554 15.522 7.95424 15.5083 7.91294C15.3025 7.26585 15.4808 6.57745 15.9472 6.10934Z" fill="#2B354E"/>
<path d="M33.7634 7.94049C33.7634 7.74774 33.928 7.59629 34.12 7.58252H35.8619C36.0539 7.59629 36.2048 7.74774 36.2185 7.94049V20.3867C36.2185 20.5794 36.0539 20.7446 35.8619 20.7446H34.12C33.928 20.7309 33.7771 20.5794 33.7634 20.3867V7.94049Z" fill="#2B354E"/>
<path d="M39.1398 18.9138L39.8118 17.7435C39.9353 17.537 40.1959 17.4682 40.4016 17.5921C40.4153 17.6059 40.429 17.6059 40.4428 17.6196C40.5388 17.6747 42.0612 18.7899 43.2681 18.7899C44.2419 18.7899 44.9688 18.1566 44.9688 17.3443C44.9688 16.3805 44.1596 15.7197 42.5823 15.0863C40.8405 14.3704 39.0712 13.2414 39.0712 11.0248C39.0712 9.34511 40.3056 7.4176 43.2818 7.4176C44.6259 7.44514 45.9426 7.88571 47.0261 8.68425C47.2181 8.8357 47.273 9.09729 47.1358 9.30381L46.4226 10.3777C46.2718 10.598 45.9975 10.7494 45.7643 10.598C45.6134 10.5016 44.187 9.5654 43.1584 9.5654C42.0886 9.5654 41.5125 10.2813 41.5125 10.8871C41.5125 11.7683 42.212 12.3741 43.7344 12.9936C45.5448 13.7233 47.657 14.811 47.657 17.2479C47.657 19.1892 45.9837 20.979 43.3504 20.979C40.9914 20.979 39.6061 19.8638 39.2221 19.5058C39.0712 19.2993 38.9752 19.2167 39.1398 18.9138Z" fill="#2B354E"/>
<path d="M48.5348 20.2626L54.3638 7.60999C54.4187 7.48608 54.5421 7.40347 54.6793 7.40347H54.8713C55.0084 7.3897 55.1319 7.47231 55.1867 7.60999L60.9609 20.2626C61.0432 20.4278 60.9883 20.6344 60.8237 20.717C60.7689 20.7445 60.7003 20.7583 60.6454 20.7583H59.0133C58.7664 20.772 58.547 20.6206 58.4647 20.3865L57.5458 18.3627H51.9499L51.031 20.3865C50.9487 20.6206 50.7293 20.772 50.4824 20.7583H48.8503C48.672 20.772 48.5074 20.6344 48.4937 20.4554C48.4937 20.3865 48.5074 20.3177 48.5348 20.2626ZM56.6406 16.2562L54.7616 12.1121H54.7067L52.8688 16.2562H56.6406Z" fill="#2B354E"/>
<path d="M68.4628 7.40351C70.1498 7.36221 71.7819 7.99553 73.0026 9.15203C73.1534 9.27594 73.1809 9.49623 73.0574 9.64768C73.0437 9.66144 73.03 9.67521 73.03 9.68898L71.8916 10.873C71.7956 10.9969 71.6036 11.0245 71.4665 10.9281C71.4527 10.9143 71.4253 10.9006 71.4116 10.873C70.6161 10.1709 69.5875 9.77159 68.5314 9.75782C66.1312 9.75782 64.3482 11.7817 64.3482 14.136C64.3482 16.4903 66.1449 18.4867 68.5451 18.4867C69.6012 18.4729 70.6161 18.1012 71.4116 17.4128C71.5487 17.2889 71.7408 17.2889 71.8779 17.4128L73.0437 18.6243C73.1809 18.7758 73.1672 18.9961 73.03 19.1337C71.8093 20.3178 70.1772 20.9786 68.4765 20.9511C64.7459 21.02 61.6737 18.0323 61.6188 14.3012C61.5503 10.5564 64.5265 7.47235 68.2434 7.41728C68.3119 7.40351 68.3805 7.40351 68.4628 7.40351Z" fill="#2B354E"/>
<path d="M74.0451 20.2626L79.8741 7.60999C79.9289 7.48608 80.0524 7.40347 80.1895 7.40347H80.3816C80.5187 7.3897 80.6421 7.47231 80.697 7.60999L86.4711 20.2626C86.5534 20.4278 86.4986 20.6206 86.334 20.717C86.2791 20.7445 86.2105 20.7583 86.142 20.7583H84.5098C84.263 20.772 84.0435 20.6206 83.9749 20.3865L83.056 18.3627H77.4465L76.5276 20.3865C76.4453 20.6206 76.2258 20.772 75.9789 20.7583H74.3468C74.1685 20.772 74.0039 20.6344 73.9902 20.4554C74.0039 20.3865 74.0177 20.3177 74.0451 20.2626ZM82.1371 16.2562L80.2581 12.1121H80.2032L78.3654 16.2562H82.1371Z" fill="#2B354E"/>
<path d="M88.3782 18.6655C88.9954 18.6655 89.4891 19.1612 89.4891 19.7807C89.4891 20.4003 88.9954 20.8959 88.3782 20.8959C87.7611 20.8959 87.2673 20.4003 87.2673 19.7807C87.281 19.1612 87.7748 18.6655 88.3782 18.6655ZM88.3782 20.7032C88.8857 20.7032 89.2971 20.2901 89.2971 19.7807C89.2971 19.2713 88.8857 18.8583 88.3782 18.8583C87.8708 18.8583 87.4593 19.2713 87.4593 19.7807C87.4593 20.2901 87.8708 20.7032 88.3782 20.7032ZM87.9942 19.2713C87.9942 19.2438 88.0216 19.2162 88.0491 19.2162H88.4879C88.6799 19.2025 88.8445 19.3402 88.8719 19.5329C88.8719 19.5467 88.8719 19.5467 88.8719 19.5604C88.8857 19.7256 88.7759 19.8633 88.6251 19.9046C88.6936 20.0285 88.7485 20.1525 88.8171 20.2626C88.8308 20.2901 88.8171 20.3314 88.7897 20.3452C88.7759 20.3452 88.7759 20.3452 88.7622 20.3452H88.6525C88.6251 20.3452 88.6114 20.3177 88.5977 20.3039L88.4194 19.9184H88.1862V20.2901C88.1862 20.3177 88.1588 20.3452 88.1314 20.3452H88.0491C88.0216 20.3452 87.9942 20.3177 87.9942 20.2901V19.2713ZM88.4879 19.7394C88.5839 19.7394 88.6662 19.6706 88.6662 19.5742V19.5604C88.6662 19.4641 88.5976 19.3815 88.5016 19.3815C88.4879 19.3815 88.4879 19.3815 88.4742 19.3815H88.1725V19.7394H88.4879Z" fill="#2B354E"/>
</svg>

<svg xmlns="http://www.w3.org/2000/svg" fill="none" viewBox="0 0 97 28"><path fill="#2B354E" d="M9.103 15.458c-.7-.703-.7-1.845 0-2.547a1.791 1.791 0 0 1 2.537 0 1.8 1.8 0 0 1 .453 1.79.107.107 0 0 0 .027.11l.878.88c.041.042.11.042.151 0l.028-.027a3.192 3.192 0 0 0-1.317-4.31 3.168 3.168 0 0 0-4.293 1.323 3.192 3.192 0 0 0 1.317 4.309 3.165 3.165 0 0 0 2.976 0c.055-.028.068-.096.04-.152 0-.013-.013-.013-.027-.027l-.891-.881c-.027-.028-.069-.042-.11-.028-.617.207-1.303.028-1.769-.44ZM9.117 19.725a1.792 1.792 0 0 1 2.537 0c.7.703.7 1.845 0 2.547a1.785 1.785 0 0 1-1.783.455.106.106 0 0 0-.11.027l-.878.881c-.04.042-.04.11 0 .166.014.014.014.014.028.014 1.55.825 3.47.233 4.293-1.322a3.192 3.192 0 0 0-1.317-4.31 3.168 3.168 0 0 0-4.293 1.322 3.198 3.198 0 0 0 0 2.988c.028.055.096.069.151.041.014 0 .014-.014.027-.027l.878-.882c.028-.027.041-.069.028-.11a1.765 1.765 0 0 1 .439-1.79ZM17.209 22.796a1.795 1.795 0 0 1-1.797-1.79c0-.991.795-1.803 1.783-1.803.658 0 1.275.358 1.577.95.014.04.055.055.096.055h1.248c.069 0 .11-.055.11-.11v-.028a3.162 3.162 0 0 0-3.964-2.107 3.184 3.184 0 0 0-2.098 3.98 3.162 3.162 0 0 0 3.964 2.106 3.187 3.187 0 0 0 2.098-2.107c.014-.055-.014-.124-.082-.137h-1.276a.116.116 0 0 0-.096.055 1.757 1.757 0 0 1-1.563.936ZM15.412 14.191c0-.991.795-1.804 1.783-1.804.987 0 1.797.799 1.797 1.79 0 .661-.357 1.267-.947 1.584-.04.013-.055.055-.055.096v1.253c0 .055.055.11.11.11h.027a3.178 3.178 0 0 0 2.099-3.979 3.162 3.162 0 0 0-3.964-2.107 3.184 3.184 0 0 0-2.098 3.98 3.187 3.187 0 0 0 2.098 2.106c.055.014.124-.014.137-.083V15.857a.116.116 0 0 0-.055-.096 1.792 1.792 0 0 1-.932-1.57ZM12.162 7.376a1.798 1.798 0 1 1-3.594 0c0-.661.357-1.267.946-1.583.042-.014.055-.056.055-.097V4.443a.108.108 0 0 0-.11-.11h-.027a3.178 3.178 0 0 0-2.098 3.979 3.162 3.162 0 0 0 3.963 2.107 3.184 3.184 0 0 0 2.099-3.98 3.187 3.187 0 0 0-2.099-2.106c-.054-.014-.123.014-.137.083V5.696c0 .041.028.083.055.097.59.316.947.922.947 1.583ZM25.301 19.726c.7.702.7 1.845 0 2.547-.7.702-1.838.702-2.537 0a1.801 1.801 0 0 1-.453-1.79.107.107 0 0 0-.027-.11l-.878-.895c-.041-.041-.11-.041-.165 0-.014.014-.014.014-.014.028a3.192 3.192 0 0 0 1.317 4.309c1.55.826 3.47.234 4.293-1.322a3.192 3.192 0 0 0-1.317-4.31 3.164 3.164 0 0 0-2.976 0c-.055.028-.068.097-.04.152 0 .014.013.014.026.028l.878.881c.028.027.069.041.11.027a1.815 1.815 0 0 1 1.783.455ZM25.301 15.458c-.7.702-1.838.702-2.537 0-.7-.702-.7-1.845 0-2.547a1.785 1.785 0 0 1 1.783-.455c.041.014.082 0 .11-.027l.877-.881a.126.126 0 0 0 0-.165s-.013-.014-.027-.014a3.168 3.168 0 0 0-4.293 1.322A3.192 3.192 0 0 0 22.531 17c1.55.826 3.47.234 4.293-1.322a3.198 3.198 0 0 0 0-2.988c-.028-.055-.096-.082-.151-.04-.014 0-.014.013-.028.013l-.877.881c-.028.028-.042.069-.028.11a1.812 1.812 0 0 1-.439 1.804ZM24.066 9.18a1.795 1.795 0 0 1-1.797-1.79c0-.992.796-1.804 1.783-1.804a1.78 1.78 0 0 1 1.578.95c.013.041.054.055.096.055h1.248c.068 0 .11-.055.11-.11v-.027a3.162 3.162 0 0 0-3.964-2.107 3.178 3.178 0 0 0-2.099 3.979 3.162 3.162 0 0 0 3.964 2.106 3.187 3.187 0 0 0 2.098-2.106c.014-.055-.013-.124-.082-.138H25.74a.115.115 0 0 0-.096.055 1.85 1.85 0 0 1-1.577.937ZM15.947 6.11a1.791 1.791 0 0 1 2.538 0c.699.701.699 1.844 0 2.546a1.785 1.785 0 0 1-1.784.455.106.106 0 0 0-.11.027l-.877.881a.108.108 0 0 0 0 .152l.027.027c1.55.826 3.47.234 4.293-1.321a3.192 3.192 0 0 0-1.316-4.31 3.167 3.167 0 0 0-4.293 1.322 3.198 3.198 0 0 0 0 2.988c.027.055.096.069.15.041.014 0 .014-.014.028-.014l.878-.88a.107.107 0 0 0 .027-.111 1.782 1.782 0 0 1 .44-1.804ZM33.763 7.94c0-.192.165-.344.357-.357h1.742a.384.384 0 0 1 .356.357v12.447a.364.364 0 0 1-.356.358H34.12a.384.384 0 0 1-.357-.358V7.94ZM39.14 18.914l.672-1.17a.427.427 0 0 1 .59-.152c.013.014.027.014.04.028.097.055 1.62 1.17 2.826 1.17.974 0 1.7-.633 1.7-1.446 0-.963-.808-1.624-2.386-2.258-1.742-.716-3.51-1.845-3.51-4.061 0-1.68 1.234-3.607 4.21-3.607a6.552 6.552 0 0 1 3.744 1.266.458.458 0 0 1 .11.62l-.713 1.074c-.151.22-.425.371-.659.22-.15-.096-1.577-1.033-2.606-1.033-1.07 0-1.645.716-1.645 1.322 0 .881.699 1.487 2.221 2.107 1.81.73 3.923 1.817 3.923 4.254 0 1.941-1.673 3.731-4.307 3.731-2.359 0-3.744-1.115-4.128-1.473-.15-.207-.247-.29-.082-.592ZM48.535 20.263 54.364 7.61a.347.347 0 0 1 .315-.207h.192c.137-.013.26.07.316.207l5.774 12.653c.082.165.027.371-.137.454a.421.421 0 0 1-.179.041h-1.632a.548.548 0 0 1-.548-.371l-.92-2.024H51.95l-.919 2.024a.548.548 0 0 1-.549.371H48.85a.335.335 0 0 1-.356-.303c0-.068.013-.137.04-.192Zm8.106-4.007-1.88-4.144h-.054l-1.838 4.144h3.772ZM68.463 7.404a6.379 6.379 0 0 1 4.54 1.748c.15.124.178.344.054.496-.013.013-.027.027-.027.041l-1.138 1.184a.316.316 0 0 1-.425.055c-.014-.014-.042-.027-.055-.055a4.458 4.458 0 0 0-2.88-1.115c-2.4 0-4.184 2.024-4.184 4.378s1.797 4.35 4.197 4.35a4.455 4.455 0 0 0 2.867-1.073.339.339 0 0 1 .466 0l1.166 1.211a.367.367 0 0 1-.014.51 6.393 6.393 0 0 1-4.553 1.817c-3.731.069-6.803-2.919-6.858-6.65-.069-3.745 2.907-6.829 6.624-6.884.069-.013.138-.013.22-.013ZM74.045 20.263l5.83-12.653a.346.346 0 0 1 .314-.207h.193c.137-.013.26.07.315.207l5.774 12.653a.341.341 0 0 1-.137.454.437.437 0 0 1-.192.041H84.51a.52.52 0 0 1-.535-.371l-.919-2.024h-5.61l-.918 2.024a.548.548 0 0 1-.55.371h-1.631a.335.335 0 0 1-.357-.303.792.792 0 0 1 .055-.192Zm8.092-4.007-1.879-4.144h-.055l-1.838 4.144h3.772ZM88.378 18.666c.617 0 1.111.495 1.111 1.115s-.494 1.115-1.11 1.115c-.618 0-1.112-.496-1.112-1.115.014-.62.508-1.115 1.111-1.115Zm0 2.037a.92.92 0 0 0 .92-.922.92.92 0 0 0-.92-.923.92.92 0 0 0-.919.923c0 .51.412.922.92.922Zm-.384-1.432c0-.027.028-.055.055-.055h.439a.362.362 0 0 1 .384.317v.027a.329.329 0 0 1-.247.345c.069.123.124.247.192.358.014.027 0 .068-.027.082h-.138c-.027 0-.04-.027-.054-.041l-.179-.386h-.233v.372c0 .028-.027.055-.055.055h-.082c-.027 0-.055-.027-.055-.055v-1.019Zm.494.468c.096 0 .178-.068.178-.165v-.014c0-.096-.068-.178-.164-.178h-.33v.357h.316Z"/></svg>
